icons/Dart-Dark.svg

<svg xmlns="http://www.w3.org/2000/svg" width="256" height="256" fill="none" viewBox="0 0 256 256"><rect width="256" height="256" fill="#242938" rx="60"/><path fill="#00C4B3" d="M87.4494 87.005L75.8113 75.3612L75.8563 159.463L75.9969 163.39C76.0532 165.246 76.4047 167.327 76.9672 169.493L169.147 202.005L192.209 191.796L192.229 191.762L87.4438 87.005H87.4494Z"/><path fill="#22D3C5" d="M76.97 169.493H76.9785C76.97 169.459 76.956 169.42 76.9391 169.38C76.9588 169.423 76.9588 169.465 76.9672 169.493H76.97ZM192.187 191.796L169.124 202.005L76.9588 169.493C78.7166 176.254 82.6175 183.853 86.8081 187.999L116.874 217.916L183.778 218L192.159 191.796H192.187Z"/><path fill="#0075C9" d="M76.1263 75.364L40.2866 129.491C37.311 132.669 38.796 139.227 43.5856 144.059L64.2744 164.917L77.2794 169.501C76.7169 167.341 76.3625 165.282 76.3091 163.398L76.1685 159.472L76.1263 75.3696V75.364Z"/><path fill="#0075C9" d="M169.906 76.4469C167.741 75.8984 165.665 75.5525 163.795 75.499L159.638 75.3472L75.8113 75.3669L192.226 191.765L202.453 168.702L169.912 76.4525L169.906 76.4469Z"/><path fill="#00A8E1" d="M169.799 76.4271C169.836 76.4412 169.875 76.4496 169.906 76.4553V76.444C169.87 76.4356 169.836 76.4356 169.799 76.4215V76.4271ZM188.404 86.3215C184.171 82.0606 176.676 78.1653 169.906 76.4553L202.447 168.697L192.209 191.759L217.19 183.777L217.246 115.287L188.401 86.3187L188.404 86.3215Z"/><path fill="#00C4B3" d="M165.344 63.5234L144.532 42.8234C139.677 38.0506 133.119 36.56 129.969 39.53L75.845 75.3613L159.672 75.3416L163.828 75.4934C165.699 75.5497 167.777 75.8928 169.94 76.4413L165.35 63.5178L165.344 63.5234Z"/></svg>

<svg xmlns="http://www.w3.org/2000/svg" width="256" height="256" fill="none" viewBox="0 0 256 256"><rect width="256" height="256" fill="#242938" rx="60"/><path fill="#00C4B3" d="M87.45 87 75.8 75.36l.05 84.1.14 3.93c.05 1.86.4 3.94.97 6.1L169.15 202l23.06-10.2.02-.04z"/><path fill="#22D3C5" d="m76.97 169.5-.03-.12zm115.22 22.3L169.12 202l-92.16-32.5c1.76 6.75 5.66 14.35 9.85 18.5l30.06 29.92 66.9.08 8.39-26.2z"/><path fill="#0075C9" d="M76.13 75.36 40.29 129.5c-2.98 3.18-1.5 9.74 3.3 14.57l20.68 20.86 13 4.58a28 28 0 0 1-.96-6.1l-.14-3.93z"/><path fill="#0075C9" d="M169.9 76.45a28 28 0 0 0-6.1-.95l-4.16-.15-83.83.02 116.42 116.4 10.22-23.07-32.54-92.25"/><path fill="#00A8E1" d="m169.8 76.43.1.03v-.02zm18.6 9.9c-4.23-4.27-11.72-8.16-18.5-9.87l32.55 92.24-10.24 23.06 24.98-7.98.06-68.5z"/><path fill="#00C4B3" d="m165.34 63.52-20.8-20.7c-4.86-4.77-11.42-6.26-14.57-3.29L75.85 75.36l83.82-.02 4.16.15c1.87.06 3.95.4 6.11.95z"/></svg>
